64x64/apps/airwave-manager.svg

<svg height="64" width="64" xmlns="http://www.w3.org/2000/svg"><path d="m12 54.332v2a2.663 2.663 0 0 0 2.668 2.668h34.664a2.662 2.662 0 0 0 2.668-2.668v-2a2.662 2.662 0 0 1 -2.668 2.668h-34.664a2.663 2.663 0 0 1 -2.668-2.668z" opacity=".2"/><rect fill="#848484" height="22" rx="2.666" ry="2.75" width="8" x="18" y="6"/><rect fill="#848484" height="22" rx="2.666" ry="2.75" width="8" x="38" y="6"/><rect fill="#ba2d2d" height="32" rx="2.666" width="40" x="12" y="26"/><path d="m20.668 6c-1.477 0-2.668 1.226-2.668 2.75v1c0-1.524 1.19-2.75 2.668-2.75h2.664c1.478 0 2.668 1.226 2.668 2.75v-1c0-1.524-1.19-2.75-2.668-2.75zm20 0c-1.478 0-2.668 1.226-2.668 2.75v1c0-1.524 1.19-2.75 2.668-2.75h2.664c1.478 0 2.668 1.226 2.668 2.75v-1c0-1.524-1.19-2.75-2.668-2.75z" fill="#f4f4f7" opacity=".2"/></svg>

<svg height="64" width="64" xmlns="http://www.w3.org/2000/svg">
    <path d="M12 54.332v2A2.663 2.663 0 0 0 14.668 59h34.664A2.662 2.662 0 0 0 52 56.332v-2A2.662 2.662 0 0 1 49.332 57H14.668A2.663 2.663 0 0 1 12 54.332z" opacity=".2"/>
    <rect fill="#848484" height="22" rx="2.666" ry="2.75" width="8" x="18" y="6"/>
    <rect fill="#848484" height="22" rx="2.666" ry="2.75" width="8" x="38" y="6"/>
    <rect fill="#ba2d2d" height="32" rx="2.666" width="40" x="12" y="26"/>
    <path d="M20.668 6C19.191 6 18 7.226 18 8.75v1C18 8.226 19.19 7 20.668 7h2.664C24.81 7 26 8.226 26 9.75v-1C26 7.226 24.81 6 23.332 6zm20 0C39.19 6 38 7.226 38 8.75v1C38 8.226 39.19 7 40.668 7h2.664C44.81 7 46 8.226 46 9.75v-1C46 7.226 44.81 6 43.332 6z" fill="#f4f4f7" opacity=".2"/>
</svg>
